src/images/pages/trade-explanation/zh_tw/run-low.svg

<?xml version="1.0" encoding="UTF-8"?>
<svg width="299px" height="197px" viewBox="0 0 299 197" version="1.1" xmlns="http://www.w3.org/2000/svg" xmlns:xlink="http://www.w3.org/1999/xlink">
    <!-- Generator: Sketch 52.6 (67491) - http://www.bohemiancoding.com/sketch -->
    <title>Run low</title>
    <desc>Created with Sketch.</desc>
    <defs>
        <path d="M15.78,10.39 L29.205,10.39 L29.205,11.785 L22.815,11.785 L22.815,13.75 C24.645,14.635 26.505,15.655 28.395,16.795 L27.54,18.085 C25.65,16.855 24.075,15.91 22.815,15.265 L22.815,23.545 L21.39,23.545 L21.39,11.785 L15.78,11.785 L15.78,10.39 Z M31.23,10.225 L36.045,10.225 L36.045,15.205 L34.62,15.205 L34.62,17.275 L36.21,17.275 L36.21,18.625 L34.62,18.625 L34.62,20.905 C35.16,20.74 35.67,20.575 36.165,20.425 L36.165,21.85 C34.635,22.36 32.88,22.84 30.87,23.275 L30.465,21.91 C30.69,21.85 30.915,21.805 31.14,21.775 L31.14,16.54 L32.4,16.54 L32.4,21.49 C32.7,21.415 33,21.34 33.285,21.28 L33.285,15.205 L31.23,15.205 L31.23,10.225 Z M34.695,13.885 L34.695,11.545 L32.595,11.545 L32.595,13.885 L34.695,13.885 Z M38.355,13.66 C38.13,14.41 37.875,15.115 37.605,15.745 L36.435,15.01 C37.05,13.63 37.5,12.145 37.77,10.585 L38.985,10.84 C38.895,11.35 38.805,11.83 38.7,12.28 L39.84,12.28 L39.84,9.745 L41.19,9.745 L41.19,12.28 L43.485,12.28 L43.485,13.66 L41.175,13.66 C41.145,14.59 41.07,15.46 40.965,16.255 L44.04,16.255 L44.04,17.62 L41.385,17.62 C41.775,19.63 42.81,21.205 44.505,22.345 L43.71,23.605 C42.09,22.36 40.995,20.755 40.455,18.79 C40.32,19.21 40.185,19.585 40.05,19.945 C39.36,21.505 38.25,22.705 36.72,23.545 L35.985,22.405 C37.455,21.505 38.46,20.365 39,18.97 C39.15,18.55 39.27,18.1 39.375,17.62 L36.615,17.62 L36.615,16.255 L39.63,16.255 C39.735,15.445 39.795,14.59 39.825,13.66 L38.355,13.66 Z" id="path-1"></path>
    </defs>
    <g id="Page-1" stroke="none" stroke-width="1" fill="none" fill-rule="evenodd">
        <g id="Run-low">
            <polygon id="Path" fill="#F1F2F2" points="0 0 299 0 299 197 0 197"></polygon>
            <path d="M1.98671096,1.9798995 L1.98671096,195.020101 L297.013289,195.020101 L297.013289,1.9798995 L1.98671096,1.9798995 Z M299,0 L299,197 L0,197 L0,0 L299,0 Z" id="Path" fill="#C2C2C2" fill-rule="nonzero"></path>
            <path d="M5,54.8937051 L5,53.6865475 L295,53.6865475 L295,54.8937051 L5,54.8937051 Z M5,75.2212672 L5,74.0141095 L295,74.0141095 L295,75.2212672 L5,75.2212672 Z M5,95.5113934 L5,94.3042358 L295,94.3042358 L295,95.5113934 L5,95.5113934 Z M5,136.129081 L5,134.921924 L295,134.921924 L295,136.129081 L5,136.129081 Z M5,156.419208 L5,155.21205 L295,155.21205 L295,156.419208 L5,156.419208 Z M5,176.709335 L5,175.502177 L295,175.502177 L295,176.709335 L5,176.709335 Z M39.4203806,34 L40.6286516,34 L40.6286516,194 L39.4203806,194 L39.4203806,34 Z M76.1287678,34 L77.3370388,34 L77.3370388,194 L76.1287678,194 L76.1287678,34 Z M112.799735,34 L114.008006,34 L114.008006,194 L112.799735,194 L112.799735,34 Z M149.508122,34 L150.716393,34 L150.716393,194 L149.508122,194 L149.508122,34 Z M186.17909,34 L187.387361,34 L187.387361,194 L186.17909,194 L186.17909,34 Z M222.850058,34 L224.058329,34 L224.058329,194 L222.850058,194 L222.850058,34 Z M259.558445,34 L260.766716,34 L260.766716,194 L259.558445,194 L259.558445,34 Z" id="Shape" fill="#DFDEDE" fill-rule="nonzero"></path>
            <polygon id="Path" fill="#C2C2C2" fill-rule="nonzero" points="0.804766102 33.9510902 0.804766102 31.504306 298.631318 31.504306 298.631318 33.9510902"></polygon>
            <path d="M125.443646,89.3568677 L88.0816107,116.146679 C87.9376869,116.249878 87.7689387,116.313003 87.5926197,116.329601 L52.6337332,119.620598 C52.0838795,119.672361 51.5961731,119.268578 51.5444104,118.718725 C51.4926477,118.168871 51.8964302,117.681165 52.4462839,117.629402 L87.1359422,114.36375 L124.440364,87.6152494 C124.547408,87.5384952 124.668561,87.4836446 124.796865,87.4538481 L161.335859,78.9682268 L197.684572,55.2864603 C197.812297,55.2032458 197.957355,55.1503335 198.108661,55.1317674 L235.548618,50.5376741 C236.096791,50.4704101 236.595702,50.8602642 236.662966,51.4084376 C236.73023,51.9566109 236.340376,52.4555214 235.792202,52.5227853 L198.58221,57.0886607 L162.279803,80.7402578 C162.182013,80.8039695 162.073825,80.8500702 161.960137,80.8764725 L125.443646,89.3568677 Z M161.507708,78.9283175 L161.188041,79.0645323 L161.335859,78.9682268 L161.507708,78.9283175 Z M87.4051704,114.338405 L86.9161794,114.521327 L87.1359422,114.36375 L87.4051704,114.338405 Z" id="Shape" fill="#2A3052" fill-rule="nonzero" transform="translate(144.105227, 85.077597) scale(-1, 1) rotate(-180.000000) translate(-144.105227, -85.077597) "></path>
            <path d="M190.2625,150.5625 L155.1625,150.5625 L149.7625,142.35 L144.3625,150.5625 L109.2625,150.5625 C106.6375,150.5625 104.5375,152.7 104.5375,155.3625 L104.5375,180.15 C104.5375,182.8125 106.675,184.95 109.2625,184.95 L190.2625,184.95 C192.8875,184.95 194.9875,182.8125 194.9875,180.15 L194.9875,155.3625 C194.9875,152.7 192.85,150.5625 190.2625,150.5625 Z" id="Shape" fill="#E88024"></path>
            <g id="Group" transform="translate(226.750000, 109.750000)">
                <g id="Oval" opacity="0.6" fill="#FFFFFF">
                    <ellipse cx="8.5125" cy="9.225" rx="8.1375" ry="8.475"></ellipse>
                </g>
                <path d="M8.5125,18.02305 C3.83686418,18.02305 0.05195,14.0811578 0.05195,9.225 C0.05195,4.36884218 3.83686418,0.42695 8.5125,0.42695 C13.1881358,0.42695 16.97305,4.36884218 16.97305,9.225 C16.97305,14.0811578 13.1881358,18.02305 8.5125,18.02305 Z M8.5125,17.37695 C12.8252985,17.37695 16.32695,13.7300687 16.32695,9.225 C16.32695,4.71993131 12.8252985,1.07305 8.5125,1.07305 C4.19970152,1.07305 0.69805,4.71993131 0.69805,9.225 C0.69805,13.7300687 4.19970152,17.37695 8.5125,17.37695 Z" id="Oval" fill="#E88024" fill-rule="nonzero"></path>
            </g>
            <g id="Group" transform="translate(79.500000, 47.000000)">
                <g id="Oval" opacity="0.6" fill="#FFFFFF">
                    <ellipse cx="8.1375" cy="8.475" rx="8.1375" ry="8.475"></ellipse>
                </g>
                <path d="M8.1375,17.27305 C3.46186418,17.27305 -0.32305,13.3311578 -0.32305,8.475 C-0.32305,3.61884218 3.46186418,-0.32305 8.1375,-0.32305 C12.8131358,-0.32305 16.59805,3.61884218 16.59805,8.475 C16.59805,13.3311578 12.8131358,17.27305 8.1375,17.27305 Z M8.1375,16.62695 C12.4502985,16.62695 15.95195,12.9800687 15.95195,8.475 C15.95195,3.96993131 12.4502985,0.32305 8.1375,0.32305 C3.82470152,0.32305 0.32305,3.96993131 0.32305,8.475 C0.32305,12.9800687 3.82470152,16.62695 8.1375,16.62695 Z" id="Oval" fill="#E88024" fill-rule="nonzero"></path>
            </g>
            <polygon id="Shape" fill="#2A3052" fill-rule="nonzero" points="5 136 5 135 294.283847 135 294.283847 136"></polygon>
            <g id="下跌" fill="#000000">
                <use xlink:href="#path-1"></use>
                <use xlink:href="#path-1"></use>
            </g>
            <path d="M237.235,86.391 L238.418,86.867 C237.129,89.691 236.243,91.34 235.759,91.813 L238.021,91.498 L239.271,89.328 L240.444,89.761 C238.581,92.967 237.003,95.469 236.206,96.073 L239.272,95.433 L238.793,93.824 L239.755,93.486 C240.466,95.395 240.822,96.548 240.822,96.946 C240.222,97.107 239.866,97.206 239.755,97.244 L239.541,96.394 C236.91,97.064 235.32,97.398 234.771,97.398 C234.645005,97.0161989 234.532931,96.6299439 234.435,96.24 C235.198,96.056 236.913,93.486 237.343,92.678 L234.603,93.088 C234.491,92.674 234.386,92.29 234.287,91.936 C234.844,91.762 235.827,89.914 237.235,86.391 Z M239.097,97.883 C239.41882,97.755842 239.747698,97.6473289 240.082,97.558 C240.802,99.35 241.162,100.351 241.162,100.558 C241.103,100.623 240.765,100.782 240.146,101.033 C239.827084,99.9728929 239.476932,98.922435 239.096,97.883 L239.097,97.883 Z M237.999,98.046 C238.084,98.373 238.705,101.526 238.705,101.654 L237.517,101.94 C237.269,99.98 237.087,98.769 236.97,98.304 C237.426,98.164 237.513,98.164 238,98.046 L237.999,98.046 Z M234.962,98.294 L236.103,98.434 C235.953,100.431 235.742,101.776 235.47,102.471 C235.091808,102.354061 234.712109,102.242052 234.331,102.135 C234.671,100.949 234.881,99.668 234.961,98.295 L234.962,98.294 Z M240.633,88.74 L240.633,89.969 L244.968,89.969 L244.968,92.665 L241.164,92.665 L241.164,93.89 L250.099,93.89 L250.099,92.665 L246.232,92.665 L246.232,89.969 L250.462,89.969 L250.462,88.74 L246.232,88.74 L246.232,86.498 L244.968,86.498 L244.968,88.74 L240.633,88.74 Z M248.282,102.793 L248.282,101.974 L242.989,101.974 L242.989,102.794 L241.755,102.794 L241.755,95.672 L249.523,95.672 L249.523,102.794 L248.282,102.794 L248.282,102.793 Z M248.316,96.88 L243.003,96.88 L243.003,100.751 L248.316,100.751 L248.316,96.881 L248.316,96.88 Z M259.57,88.293 L259.57,86.476 L260.88,86.476 L260.88,88.292 L267.842,88.292 L267.842,89.5 L260.88,89.5 L260.88,91.166 L266.449,91.166 L266.449,96.267 L261.999,96.267 C262.892,97.818 265.042,99.455 268.447,101.178 C268.379,101.22 268.092,101.581 267.586,102.261 C265.679,101.348 261.998,98.456 260.88,96.267 L260.891,102.773 L259.571,102.773 C259.561,98.301 259.537,96.137 259.499,96.279 C258.335,98.344 255.774,100.976 252.744,102.261 L252.014,101.14 C255.227,99.64 257.374,98.016 258.458,96.267 L253.978,96.279 L253.978,91.166 L259.57,91.166 L259.57,89.5 L252.614,89.5 L252.614,88.293 L259.57,88.293 Z M259.522,92.453 L255.206,92.453 L255.206,95.183 L259.522,95.183 L259.522,92.453 Z M260.887,95.155 L265.245,95.155 L265.245,92.49 L260.887,92.49 L260.887,95.155 Z" id="Shape" fill="#2A3052" fill-rule="nonzero"></path>
            <path d="M139.924,172.118 L139.924,173.62 C139.924,173.776 139.898,173.931 139.898,174.086 L142.644,174.086 L142.644,172.118 L139.924,172.118 Z M142.644,170.901 L142.644,168.802 L139.924,168.802 L139.924,170.901 L142.644,170.901 Z M139.82,175.304 C139.587,177.014 139.043,178.464 138.188,179.629 L137.048,178.593 C137.981,177.298 138.448,175.666 138.473,173.698 L138.473,167.456 L144.068,167.456 L144.068,177.972 C144.068,179.008 143.498,179.526 142.385,179.526 L141.089,179.526 L140.727,178.101 C141.141,178.127 141.556,178.153 141.918,178.153 C142.385,178.153 142.644,177.894 142.644,177.428 L142.644,175.304 L139.82,175.304 Z M139.458,158.727 L137.282,158.727 L137.282,157.328 L147.928,157.328 C147.722732,156.876744 147.479876,156.443551 147.202,156.033 L149.042,155.723 C149.326,156.214 149.585,156.758 149.818,157.328 L160.283,157.328 L160.283,158.727 L141.115,158.727 L141.115,160.125 L158.729,160.125 L158.729,161.395 L139.458,161.395 L139.458,158.727 Z M159.221,179.137 L158.003,179.137 C157.149,179.137 156.734,178.723 156.734,177.946 L156.734,174.397 L155.931,174.941 C155.491,174.061 154.895,173.128 154.17,172.118 L154.17,172.558 C154.17,174.32 154.04,175.692 153.833,176.625 C153.574,177.557 153.082,178.567 152.305,179.603 L151.139,178.567 L150.725,179.06 C150.133385,178.31794 149.464635,177.64081 148.73,177.04 L149.611,176.21 C150.311,176.728 150.958,177.35 151.528,178.023 C151.942,177.376 152.228,176.78 152.383,176.236 C152.59,175.511 152.719,174.268 152.719,172.558 L152.719,167.456 L158.185,167.456 L158.185,177.531 C158.185,177.739 158.288,177.868 158.521,177.868 L158.988,177.868 C159.168,177.868 159.324,177.713 159.428,177.454 C159.506,177.169 159.583,176.21 159.661,174.579 L160.827,174.993 C160.671,176.858 160.516,178.023 160.334,178.463 C160.127,178.904 159.739,179.137 159.221,179.137 Z M154.17,171.703 L154.947,171.237 C155.724,172.273 156.32,173.154 156.734,173.931 L156.734,168.906 L154.17,168.906 L154.17,171.703 Z M145.39,167.456 L151.295,167.456 L151.295,175.822 L145.389,175.822 L145.389,167.456 L145.39,167.456 Z M149.844,174.682 L149.844,173.309 L146.814,173.309 L146.814,174.682 L149.844,174.682 Z M146.814,172.325 L149.844,172.325 L149.844,171.005 L146.814,171.005 L146.814,172.325 Z M146.814,170.045 L149.844,170.045 L149.844,168.621 L146.814,168.621 L146.814,170.046 L146.814,170.045 Z M146.969,176.236 L147.902,177.066 C147.228,178.023 146.373,178.852 145.389,179.578 L144.586,178.516 C145.495519,177.886326 146.299779,177.116828 146.969,176.236 Z M140.235,162.534 L157.252,162.534 L157.252,166.29 L140.235,166.29 L140.235,162.534 Z M155.517,165.202 L155.517,163.622 L141.969,163.622 L141.969,165.202 L155.516,165.202 L155.517,165.202 Z M164.841,158.52 L167.251,158.52 L166.861,172.04 L165.256,172.04 L164.841,158.52 Z M166.033,173.931 C166.499,173.931 166.862,174.061 167.173,174.371 C167.457,174.656 167.613,175.019 167.613,175.459 C167.613,175.925 167.457,176.289 167.173,176.573 C166.862,176.858 166.473,177.013 166.033,177.013 C165.593,177.013 165.23,176.858 164.945,176.573 C164.641078,176.282923 164.472145,175.879078 164.479,175.459 C164.479,175.019 164.634,174.656 164.945,174.371 C165.23,174.061 165.592,173.931 166.033,173.931 Z" id="Shape" fill="#FFFFFF" fill-rule="nonzero"></path>
            <path d="M32.622,74.381 L35.149,74.381 L35.149,72.196 L33.135,72.196 L33.135,71.018 L42.35,71.018 L42.35,72.196 L40.507,72.196 L40.507,74.381 L42.958,74.381 L42.958,75.597 L40.507,75.597 L40.507,79.967 L39.253,79.967 L39.253,75.597 L36.289,75.597 C36.175,76.604 35.947,77.459 35.605,78.143 C35.149,79.036 34.37,79.739 33.306,80.233 L32.622,79.15 C33.553,78.694 34.218,78.086 34.598,77.326 C34.807,76.832 34.959,76.243 35.054,75.597 L32.622,75.597 L32.622,74.381 Z M39.253,74.381 L39.253,72.196 L36.384,72.196 L36.384,74.381 L39.253,74.381 Z M31.368,67.142 L31.368,68.529 L35.643,68.529 L35.643,67.142 L31.368,67.142 Z M35.643,66.173 L35.643,64.71 L31.368,64.71 L31.368,66.173 L35.643,66.173 Z M39.899,67.142 L39.899,68.491 L44.288,68.491 L44.288,67.142 L39.899,67.142 Z M44.288,66.173 L44.288,64.748 L39.899,64.748 L39.899,66.173 L44.288,66.173 Z M36.973,63.627 L36.973,69.631 L31.368,69.631 L31.368,80.328 L30,80.328 L30,63.627 L36.973,63.627 Z M44.288,69.574 L38.569,69.574 L38.569,63.646 L45.637,63.646 L45.637,78.371 C45.637,79.625 45.067,80.252 43.927,80.252 C43.243,80.252 42.559,80.233 41.875,80.195 L41.552,78.979 C42.236,79.017 42.863,79.055 43.433,79.055 C44.003,79.055 44.288,78.675 44.288,77.953 L44.288,69.574 Z M50.463,63 L51.812,63.114 C51.641,64.406 51.47,65.603 51.299,66.705 L54.111,66.705 L54.111,67.503 C53.959,70.581 53.427,73.222 52.515,75.464 C53.408,76.395 54.149,77.231 54.719,77.991 L53.807,79.055 C53.275,78.352 52.648,77.592 51.907,76.794 C51.147,78.238 50.216,79.492 49.076,80.556 L48.221,79.473 C49.342,78.447 50.254,77.231 50.976,75.787 C50.216,75.008 49.399,74.21 48.525,73.374 C48.981,71.721 49.38,69.935 49.722,68.016 L48.202,68.016 L48.202,66.705 L49.95,66.705 C50.14,65.508 50.311,64.273 50.463,63 Z M51.546,74.476 C52.268,72.576 52.686,70.429 52.819,68.016 L51.09,68.016 C50.729,70.011 50.368,71.664 49.988,72.975 C50.539,73.488 51.052,73.982 51.546,74.476 Z M64.143,72.424 L64.143,80.518 L62.832,80.518 L62.832,79.378 L57.018,79.378 L57.018,80.518 L55.707,80.518 L55.707,72.424 L64.143,72.424 Z M57.018,78.086 L62.832,78.086 L62.832,73.678 L57.018,73.678 L57.018,78.086 Z M54.966,70.714 L54.757,69.479 C55.859,68.909 57.227,66.781 58.861,63.057 L60.153,63.494 C59.013,65.964 57.892,67.921 56.752,69.384 C58.88,69.251 60.913,69.023 62.832,68.719 C62.3,67.674 61.768,66.705 61.217,65.831 L62.395,65.261 C63.44,66.933 64.428,68.757 65.34,70.752 L64.067,71.36 C63.839,70.847 63.63,70.353 63.402,69.878 C60.875,70.239 58.063,70.524 54.966,70.714 Z" id="開始" fill="#2A3052" fill-rule="nonzero"></path>
        </g>
    </g>
</svg>

<svg width="299" height="197" xmlns="http://www.w3.org/2000/svg" xmlns:xlink="http://www.w3.org/1999/xlink"><defs><path d="M15.78 10.39h13.425v1.395h-6.39v1.965c1.83.885 3.69 1.905 5.58 3.045l-.855 1.29c-1.89-1.23-3.465-2.175-4.725-2.82v8.28H21.39v-11.76h-5.61V10.39zm15.45-.165h4.815v4.98H34.62v2.07h1.59v1.35h-1.59v2.28c.54-.165 1.05-.33 1.545-.48v1.425c-1.53.51-3.285.99-5.295 1.425l-.405-1.365c.225-.06.45-.105.675-.135V16.54h1.26v4.95c.3-.075.6-.15.885-.21v-6.075H31.23v-4.98zm3.465 3.66v-2.34h-2.1v2.34h2.1zm3.66-.225c-.225.75-.48 1.455-.75 2.085l-1.17-.735a18.696 18.696 0 0 0 1.335-4.425l1.215.255c-.09.51-.18.99-.285 1.44h1.14V9.745h1.35v2.535h2.295v1.38h-2.31c-.03.93-.105 1.8-.21 2.595h3.075v1.365h-2.655c.39 2.01 1.425 3.585 3.12 4.725l-.795 1.26c-1.62-1.245-2.715-2.85-3.255-4.815-.135.42-.27.795-.405 1.155-.69 1.56-1.8 2.76-3.33 3.6l-.735-1.14c1.47-.9 2.475-2.04 3.015-3.435.15-.42.27-.87.375-1.35h-2.76v-1.365h3.015c.105-.81.165-1.665.195-2.595h-1.47z" id="a"/></defs><g fill="none" fill-rule="evenodd"><path fill="#F1F2F2" d="M0 0h299v197H0z"/><path d="M1.987 1.98v193.04h295.026V1.98H1.987zM299 0v197H0V0h299z" fill="#C2C2C2" fill-rule="nonzero"/><path d="M5 54.894v-1.207h290v1.207H5zM5 75.22v-1.207h290v1.207H5zm0 20.29v-1.207h290v1.207H5zm0 40.618v-1.207h290v1.207H5zm0 20.29v-1.207h290v1.207H5zm0 20.29v-1.207h290v1.207H5zM39.42 34h1.209v160H39.42V34zm36.709 0h1.208v160h-1.208V34zm36.67 0h1.209v160H112.8V34zm36.71 0h1.207v160h-1.208V34zm36.67 0h1.208v160h-1.208V34zm36.671 0h1.208v160h-1.208V34zm36.708 0h1.209v160h-1.209V34z" fill="#DFDEDE" fill-rule="nonzero"/><path fill="#C2C2C2" fill-rule="nonzero" d="M.805 33.951v-2.447H298.63v2.447z"/><path d="M125.444 80.798l-37.362-26.79a1 1 0 0 0-.49-.182l-34.958-3.291a1 1 0 1 0-.188 1.99l34.69 3.266L124.44 82.54a1 1 0 0 0 .357.161l36.539 8.486 36.349 23.682a1 1 0 0 0 .424.154l37.44 4.595a1 1 0 1 0 .243-1.986l-37.21-4.565-36.302-23.652a1 1 0 0 0-.32-.136l-36.516-8.48zm36.064 10.429l-.32-.136.148.096.172.04zm-74.103-35.41l-.489-.183.22.157.27.026z" fill="#2A3052" fill-rule="nonzero"/><path d="M190.262 150.563h-35.1l-5.4-8.213-5.4 8.213h-35.1c-2.624 0-4.725 2.137-4.725 4.8v24.787c0 2.662 2.138 4.8 4.725 4.8h81c2.625 0 4.726-2.137 4.726-4.8v-24.787c0-2.663-2.138-4.8-4.726-4.8z" fill="#E88024"/><ellipse cx="8.512" cy="9.225" rx="8.137" ry="8.475" opacity=".6" fill="#FFF" transform="translate(226.75 109.75)"/><path d="M235.262 127.773c-4.675 0-8.46-3.942-8.46-8.798s3.785-8.798 8.46-8.798c4.676 0 8.461 3.942 8.461 8.798s-3.785 8.798-8.46 8.798zm0-.646c4.313 0 7.815-3.647 7.815-8.152 0-4.505-3.502-8.152-7.815-8.152-4.312 0-7.814 3.647-7.814 8.152 0 4.505 3.502 8.152 7.814 8.152z" fill="#E88024" fill-rule="nonzero"/><ellipse cx="8.137" cy="8.475" rx="8.137" ry="8.475" opacity=".6" fill="#FFF" transform="translate(79.5 47)"/><path d="M87.638 64.273c-4.676 0-8.461-3.942-8.461-8.798s3.785-8.798 8.46-8.798c4.676 0 8.461 3.942 8.461 8.798s-3.785 8.798-8.46 8.798zm0-.646c4.312 0 7.814-3.647 7.814-8.152 0-4.505-3.502-8.152-7.814-8.152-4.313 0-7.815 3.647-7.815 8.152 0 4.505 3.502 8.152 7.815 8.152z" fill="#E88024" fill-rule="nonzero"/><path fill="#2A3052" fill-rule="nonzero" d="M5 136v-1h289.284v1z"/><g fill="#000"><use xlink:href="#a"/><use xlink:href="#a"/></g><path d="M237.235 86.391l1.183.476c-1.289 2.824-2.175 4.473-2.659 4.946l2.262-.315 1.25-2.17 1.173.433c-1.863 3.206-3.441 5.708-4.238 6.312l3.066-.64-.479-1.609.962-.338c.711 1.909 1.067 3.062 1.067 3.46-.6.161-.956.26-1.067.298l-.214-.85c-2.631.67-4.221 1.004-4.77 1.004a16.59 16.59 0 0 1-.336-1.158c.763-.184 2.478-2.754 2.908-3.562l-2.74.41c-.112-.414-.217-.798-.316-1.152.557-.174 1.54-2.022 2.948-5.545zm1.862 11.492a9.01 9.01 0 0 1 .985-.325c.72 1.792 1.08 2.793 1.08 3-.059.065-.397.224-1.016.475a56.23 56.23 0 0 0-1.05-3.15h.001zm-1.098.163c.085.327.706 3.48.706 3.608l-1.188.286c-.248-1.96-.43-3.171-.547-3.636.456-.14.543-.14 1.03-.258h-.001zm-3.037.248l1.141.14c-.15 1.997-.361 3.342-.633 4.037a45.603 45.603 0 0 0-1.139-.336c.34-1.186.55-2.467.63-3.84l.001-.001zm5.671-9.554v1.229h4.335v2.696h-3.804v1.225h8.935v-1.225h-3.867v-2.696h4.23V88.74h-4.23v-2.242h-1.264v2.242h-4.335zm7.649 14.053v-.819h-5.293v.82h-1.234v-7.122h7.768v7.122h-1.241v-.001zm.034-5.913h-5.313v3.871h5.313V96.88zm11.254-8.587v-1.817h1.31v1.816h6.962V89.5h-6.962v1.666h5.569v5.101h-4.45c.893 1.551 3.043 3.188 6.448 4.911-.068.042-.355.403-.861 1.083-1.907-.913-5.588-3.805-6.706-5.994l.011 6.506h-1.32c-.01-4.472-.034-6.636-.072-6.494-1.164 2.065-3.725 4.697-6.755 5.982l-.73-1.121c3.213-1.5 5.36-3.124 6.444-4.873l-4.48.012v-5.113h5.592V89.5h-6.956v-1.207h6.956zm-.048 4.16h-4.316v2.73h4.316v-2.73zm1.365 2.702h4.358V92.49h-4.358v2.665z" fill="#2A3052" fill-rule="nonzero"/><path d="M139.924 172.118v1.502c0 .156-.026.311-.026.466h2.746v-1.968h-2.72zm2.72-1.217v-2.099h-2.72v2.099h2.72zm-2.824 4.403c-.233 1.71-.777 3.16-1.632 4.325l-1.14-1.036c.933-1.295 1.4-2.927 1.425-4.895v-6.242h5.595v10.516c0 1.036-.57 1.554-1.683 1.554h-1.296l-.362-1.425c.414.026.829.052 1.191.052.467 0 .726-.259.726-.725v-2.124h-2.824zm-.362-16.577h-2.176v-1.399h10.646a8.842 8.842 0 0 0-.726-1.295l1.84-.31c.284.491.543 1.035.776 1.605h10.465v1.399h-19.168v1.398h17.614v1.27h-19.271v-2.668zm19.763 20.41h-1.218c-.854 0-1.269-.414-1.269-1.191v-3.549l-.803.544c-.44-.88-1.036-1.813-1.761-2.823v.44c0 1.762-.13 3.134-.337 4.067-.259.932-.751 1.942-1.528 2.978l-1.166-1.036-.414.493a13.404 13.404 0 0 0-1.995-2.02l.881-.83c.7.518 1.347 1.14 1.917 1.813.414-.647.7-1.243.855-1.787.207-.725.336-1.968.336-3.678v-5.102h5.466v10.075c0 .208.103.337.336.337h.467c.18 0 .336-.155.44-.414.078-.285.155-1.244.233-2.875l1.166.414c-.156 1.865-.311 3.03-.493 3.47-.207.441-.595.674-1.113.674zm-5.051-7.434l.777-.466c.777 1.036 1.373 1.917 1.787 2.694v-5.025h-2.564v2.797zm-8.78-4.247h5.905v8.366h-5.906v-8.366h.001zm4.454 7.226v-1.373h-3.03v1.373h3.03zm-3.03-2.357h3.03v-1.32h-3.03v1.32zm0-2.28h3.03v-1.424h-3.03v1.425-.001zm.155 6.191l.933.83c-.674.957-1.529 1.786-2.513 2.512l-.803-1.062c.91-.63 1.714-1.4 2.383-2.28zm-6.734-13.702h17.017v3.756h-17.017v-3.756zm15.282 2.668v-1.58h-13.548v1.58h13.548zm9.324-6.682h2.41l-.39 13.52h-1.605l-.415-13.52zm1.192 15.411c.466 0 .829.13 1.14.44.284.285.44.648.44 1.088 0 .466-.156.83-.44 1.114-.311.285-.7.44-1.14.44-.44 0-.803-.155-1.088-.44a1.506 1.506 0 0 1-.466-1.114c0-.44.155-.803.466-1.088.285-.31.647-.44 1.088-.44z" fill="#FFF" fill-rule="nonzero"/><path d="M32.622 74.381h2.527v-2.185h-2.014v-1.178h9.215v1.178h-1.843v2.185h2.451v1.216h-2.451v4.37h-1.254v-4.37h-2.964c-.114 1.007-.342 1.862-.684 2.546-.456.893-1.235 1.596-2.299 2.09l-.684-1.083c.931-.456 1.596-1.064 1.976-1.824.209-.494.361-1.083.456-1.729h-2.432v-1.216zm6.631 0v-2.185h-2.869v2.185h2.869zm-7.885-7.239v1.387h4.275v-1.387h-4.275zm4.275-.969V64.71h-4.275v1.463h4.275zm4.256.969v1.349h4.389v-1.349h-4.389zm4.389-.969v-1.425h-4.389v1.425h4.389zm-7.315-2.546v6.004h-5.605v10.697H30V63.627h6.973zm7.315 5.947h-5.719v-5.928h7.068v14.725c0 1.254-.57 1.881-1.71 1.881-.684 0-1.368-.019-2.052-.057l-.323-1.216c.684.038 1.311.076 1.881.076.57 0 .855-.38.855-1.102v-8.379zM50.463 63l1.349.114a162.994 162.994 0 0 1-.513 3.591h2.812v.798c-.152 3.078-.684 5.719-1.596 7.961.893.931 1.634 1.767 2.204 2.527l-.912 1.064a29.338 29.338 0 0 0-1.9-2.261c-.76 1.444-1.691 2.698-2.831 3.762l-.855-1.083c1.121-1.026 2.033-2.242 2.755-3.686-.76-.779-1.577-1.577-2.451-2.413a59.331 59.331 0 0 0 1.197-5.358h-1.52v-1.311h1.748c.19-1.197.361-2.432.513-3.705zm1.083 11.476c.722-1.9 1.14-4.047 1.273-6.46H51.09c-.361 1.995-.722 3.648-1.102 4.959a60.303 60.303 0 0 1 1.558 1.501zm12.597-2.052v8.094h-1.311v-1.14h-5.814v1.14h-1.311v-8.094h8.436zm-7.125 5.662h5.814v-4.408h-5.814v4.408zm-2.052-7.372l-.209-1.235c1.102-.57 2.47-2.698 4.104-6.422l1.292.437c-1.14 2.47-2.261 4.427-3.401 5.89a64.708 64.708 0 0 0 6.08-.665 36.462 36.462 0 0 0-1.615-2.888l1.178-.57a47.97 47.97 0 0 1 2.945 5.491l-1.273.608c-.228-.513-.437-1.007-.665-1.482a105.61 105.61 0 0 1-8.436.836z" fill="#2A3052" fill-rule="nonzero"/></g></svg>
